images/logo.svg

<?xml version="1.0" encoding="UTF-8" standalone="no"?>
<svg
   xmlns:dc="http://purl.org/dc/elements/1.1/"
   xmlns:cc="http://creativecommons.org/ns#"
   xmlns:rdf="http://www.w3.org/1999/02/22-rdf-syntax-ns#"
   xmlns:svg="http://www.w3.org/2000/svg"
   xmlns="http://www.w3.org/2000/svg"
   xmlns:sodipodi="http://sodipodi.sourceforge.net/DTD/sodipodi-0.dtd"
   xmlns:inkscape="http://www.inkscape.org/namespaces/inkscape"
   version="1.1"
   width="512"
   height="512"
   viewBox="0 0 512 512"
   id="svg2"
   inkscape:version="0.48.4 r9939"
   sodipodi:docname="favicon.svg"
   inkscape:export-filename="C:\Users\Kyo\Sites\s44.xrea.com\public_html\hail2u.net\images\favicon-32.png"
   inkscape:export-xdpi="5.6300001"
   inkscape:export-ydpi="5.6300001">
  <metadata
     id="metadata10">
    <rdf:RDF>
      <cc:Work
         rdf:about="">
        <dc:format>image/svg+xml</dc:format>
        <dc:type
           rdf:resource="http://purl.org/dc/dcmitype/StillImage" />
        <dc:title></dc:title>
      </cc:Work>
    </rdf:RDF>
  </metadata>
  <defs
     id="defs8" />
  <sodipodi:namedview
     pagecolor="#ffffff"
     bordercolor="#666666"
     borderopacity="1"
     objecttolerance="10"
     gridtolerance="10"
     guidetolerance="10"
     inkscape:pageopacity="0"
     inkscape:pageshadow="2"
     inkscape:window-width="1920"
     inkscape:window-height="1061"
     id="namedview6"
     showgrid="false"
     inkscape:zoom="1"
     inkscape:cx="187.16881"
     inkscape:cy="225.5466"
     inkscape:window-x="-8"
     inkscape:window-y="-8"
     inkscape:window-maximized="1"
     inkscape:current-layer="svg2">
    <inkscape:grid
       type="xygrid"
       id="grid3755" />
  </sodipodi:namedview>
  <rect
     style="fill:#5bacd0;fill-opacity:1;fill-rule:nonzero;stroke:none"
     id="rect3757"
     width="544"
     height="544"
     x="-16"
     y="-16"
     ry="0" />
  <path
     d="m 128,128 0,16 32,0 0,224 -32,0 0,16 128,0 0,-16 -32,0 0,-112 112,0 0,112 -32,0 0,16 80,0 0,-16 -32,0 0,-224 32,0 0,-16 -80,0 0,16 32,0 0,96 -112,0 0,-96 32,0 0,-16 z m 48,16 32,0 0,224 -32,0 z"
     style="fill:#fcf9f0;fill-opacity:1"
     id="path4"
     inkscape:connector-curvature="0"
     sodipodi:nodetypes="cccccccccccccccccccccccccccccccccc" />
</svg>

<?xml version="1.0" encoding="UTF-8" standalone="no"?>
<svg
  xmlns="http://www.w3.org/2000/svg"
  version="1.1"
  width="512"
  height="512"
  viewBox="0 0 512 512">
  <path
    d="M -16 -16 L -16 528 L 528 528 L 528 -16 L -16 -16 z M 16 16 L 496 16 L 496 496 L 16 496 L 16 16 z M 128 128 L 128 144 L 160 144 L 160 368 L 128 368 L 128 384 L 256 384 L 256 368 L 224 368 L 224 256 L 336 256 L 336 368 L 304 368 L 304 384 L 384 384 L 384 368 L 352 368 L 352 144 L 384 144 L 384 128 L 304 128 L 304 144 L 336 144 L 336 240 L 224 240 L 224 144 L 256 144 L 256 128 L 128 128 z M 176 144 L 208 144 L 208 368 L 176 368 L 176 144 z"
    style="fill:#1188bb"/>
</svg>
